resources/images/icon-twitter.svg

<svg width="24" height="24" viewBox="0 0 24 24" fill="none" xmlns="http://www.w3.org/2000/svg">
<path d="M20.125 7.09888H20.1185H20.1109V7.09888V7.09888V7.09888V7.09888V7.09888V7.09888V7.09888V7.09888V7.09888V7.09888L20.1045 7.11273L20.098 7.12774V7.12774L19.9261 7.37363C19.871 7.46031 19.81 7.5425 19.7435 7.61953C19.7348 7.61953 19.7218 7.63684 19.7056 7.66224C19.6159 7.77529 19.5203 7.88283 19.4192 7.98433C19.2547 8.161 19.0819 8.32861 18.9015 8.4865C18.7411 8.6144 18.6463 8.81531 18.6453 9.02908C18.6453 9.24381 18.6313 9.49085 18.614 9.75522C18.5967 10.0196 18.5621 10.3163 18.5124 10.6291C18.453 10.9872 18.3761 11.3417 18.2822 11.6912C18.1787 12.0841 18.0524 12.4696 17.9039 12.8456C17.7682 13.1928 17.6123 13.5306 17.4369 13.8569C17.2748 14.1555 17.126 14.4083 16.9905 14.6154C16.8554 14.8232 16.7171 15.0182 16.5777 15.2006C16.4382 15.383 16.261 15.5897 16.047 15.8194L15.6957 16.1946C15.6752 16.2165 15.5876 16.295 15.4309 16.4324C15.2742 16.5698 15.1066 16.7072 14.9304 16.8457C14.7543 16.9842 14.5889 17.0962 14.4408 17.192C14.2927 17.2879 14.1166 17.3883 13.9004 17.506C13.6803 17.6298 13.4537 17.7396 13.2216 17.8351C12.9781 17.9366 12.7212 18.0305 12.451 18.1167C12.1932 18.2 11.9312 18.2679 11.6663 18.3199C11.4134 18.3672 11.1259 18.4088 10.807 18.4423L10.3271 18.4931V18.5H9.4138V18.4931L9.29923 18.485L9.109 18.4711C9.06037 18.4711 8.8723 18.44 8.54804 18.3915C8.22379 18.343 7.96871 18.2957 7.78388 18.2472C7.59906 18.1987 7.32344 18.1075 6.95812 17.9724C6.63807 17.8572 6.32509 17.7207 6.02102 17.5638L5.53356 17.3467C5.46871 17.3109 5.39629 17.2659 5.31739 17.2128L5.19526 17.1343V17.1343V17.1343V17.1343V17.1343L5.18228 17.1274L5.15202 17.102V17.102V17.102V17.102V17.102V17.102V17.102H5.125V17.0731H5.13905H5.15202L5.21363 17.0801C5.25362 17.0801 5.36495 17.0928 5.54437 17.102C5.72379 17.1112 5.91726 17.1112 6.11938 17.102C6.32781 17.092 6.53562 17.0704 6.74195 17.0373C6.99696 16.9947 7.24955 16.9369 7.49854 16.8642C7.77012 16.788 8.03603 16.6904 8.29404 16.5721C8.53399 16.4567 8.70585 16.3735 8.80745 16.317C8.96687 16.2243 9.12131 16.1222 9.27005 16.0111L9.58133 15.7871V15.7871V15.7871V15.7871V15.7871V15.7871V15.7871V15.7871V15.7871H9.59538H9.60836V15.7721V15.7582V15.7582V15.7582L9.50027 15.7502L9.29059 15.7363C9.18313 15.7239 9.07684 15.7019 8.97282 15.6705C8.81291 15.6268 8.65672 15.5689 8.50589 15.4973C8.33701 15.4193 8.17404 15.3275 8.01843 15.2226C7.89726 15.1458 7.78293 15.0573 7.67688 14.9582C7.60663 14.889 7.51692 14.7908 7.40559 14.6638C7.30951 14.5229 7.22558 14.373 7.15483 14.2159C7.06642 14.0686 6.98873 13.9142 6.92245 13.7542L6.81436 13.4909L6.8068 13.4702L6.80031 13.4482V13.4332V13.4194H6.82085H6.8403L6.98946 13.4413C7.14463 13.4572 7.30063 13.4618 7.45639 13.4552C7.60345 13.4555 7.75038 13.4458 7.89629 13.4263C7.97736 13.4124 8.02708 13.4021 8.04437 13.3974L8.07139 13.3905L8.10598 13.3836L8.13948 13.3755V13.3755V13.3755V13.3755V13.3755L8.11138 13.3686L8.08436 13.3605L8.05734 13.3536L8.03032 13.3466L8.0033 13.3397L7.91142 13.2982C7.86603 13.2831 7.74389 13.23 7.5461 13.1388C7.38048 13.0663 7.22192 12.9766 7.07269 12.871C6.9548 12.7845 6.84249 12.6896 6.73654 12.587C6.61251 12.4617 6.49659 12.3274 6.38959 12.1853C6.25631 12.0096 6.14276 11.8178 6.05129 11.6138C5.86947 11.2337 5.7593 10.8191 5.72703 10.3936L5.70325 10.09H5.71622H5.73027L5.74324 10.0981L5.7573 10.105L5.77027 10.1119L5.78432 10.1189L5.994 10.2205C6.16171 10.2969 6.33627 10.3549 6.51497 10.3936C6.72141 10.4421 6.84571 10.4687 6.88678 10.4733L6.94731 10.4802H7.06944V10.4802V10.4802V10.4802V10.4802V10.4802V10.4802V10.4802V10.4802L7.05539 10.4733L7.04242 10.4663V10.4663V10.4663V10.4663V10.4663L7.02945 10.4594L7.0154 10.4525V10.4525L6.89867 10.3601C6.8152 10.2904 6.73746 10.2131 6.66629 10.1293C6.58522 10.0323 6.50416 9.93184 6.42202 9.82564C6.34105 9.71928 6.26873 9.60573 6.20585 9.48624C6.13065 9.3367 6.06388 9.1825 6.00589 9.02447C5.93773 8.84314 5.88457 8.65579 5.84701 8.46457C5.79686 8.26899 5.76428 8.06876 5.74973 7.86658C5.74436 7.71018 5.74906 7.55358 5.76378 7.39788C5.78015 7.24887 5.80725 7.10144 5.84484 6.95689C5.89022 6.77866 5.94877 6.60457 6.01994 6.43624L6.13559 6.16264L6.13992 6.13493L6.1464 6.113V6.113V6.113V6.113V6.113V6.113V6.113V6.113V6.113V6.113V6.113V6.113V6.113L6.15289 6.12801L6.15937 6.14302V6.14302V6.14302L6.34203 6.36005C6.46309 6.50435 6.60792 6.66482 6.77437 6.84375C6.8605 6.94324 6.95334 7.03584 7.05215 7.12082C7.07889 7.13751 7.10178 7.16039 7.11916 7.18777C7.20441 7.27891 7.29502 7.36413 7.39046 7.4429C7.54394 7.57797 7.74389 7.73497 7.99249 7.91275C8.24108 8.09053 8.51562 8.26716 8.81717 8.44033C9.13145 8.61952 9.4564 8.77647 9.78994 8.91018C10.138 9.04948 10.3815 9.14068 10.5206 9.18378C10.6597 9.22687 10.8989 9.28229 11.2383 9.35001C11.5755 9.41812 11.8306 9.46546 12.0024 9.48046C12.1743 9.49547 12.291 9.51048 12.3537 9.51394H12.4488V9.49316V9.47123L12.4207 9.28998C12.4003 9.12235 12.3913 8.95337 12.3937 8.78434C12.3926 8.58351 12.4085 8.38297 12.4413 8.1852C12.4742 7.99579 12.5219 7.80966 12.5839 7.62876C12.6335 7.47264 12.6954 7.32126 12.7688 7.17623C12.8429 7.04341 12.9234 6.91472 13.0098 6.79065C13.1247 6.62849 13.2539 6.47849 13.3956 6.34273C13.5606 6.1839 13.7419 6.04563 13.9361 5.9306C14.1157 5.82207 14.3038 5.73015 14.4981 5.65585C14.6388 5.60218 14.7834 5.56124 14.9304 5.53348C14.9898 5.52633 15.0486 5.51515 15.1066 5.5V5.5H15.8103L16.0675 5.55426C16.2263 5.58655 16.3822 5.63368 16.5333 5.6951C16.673 5.75231 16.8088 5.81981 16.9397 5.89712C17.062 5.96728 17.1807 6.04435 17.2953 6.12801C17.3967 6.20298 17.4918 6.28719 17.5796 6.37967C17.6884 6.47447 17.8359 6.50081 17.9676 6.44894C18.1602 6.40001 18.35 6.3395 18.5362 6.26769C18.7394 6.1915 18.9393 6.10492 19.1382 6.00795C19.3371 5.91098 19.4624 5.85095 19.5003 5.82439L19.5684 5.78168V5.78168L19.5824 5.77475L19.5954 5.76667L19.6094 5.75975L19.6224 5.75282V5.75282V5.75282V5.75282V5.75282H19.6354H19.6494V5.77475V5.79669L19.6419 5.81747L19.6354 5.8394L19.6289 5.85441L19.6224 5.86826L19.6148 5.8902C19.6095 5.90917 19.6052 5.92844 19.6019 5.94792C19.565 6.04705 19.522 6.14346 19.4732 6.23652C19.3853 6.41657 19.2833 6.58841 19.1685 6.75024C19.0738 6.89303 18.9651 7.02462 18.8442 7.14275C18.7469 7.23279 18.6831 7.29513 18.6507 7.33092C18.6172 7.36999 18.5786 7.4038 18.5362 7.43136L18.4681 7.47984L18.4551 7.48677L18.441 7.4937V7.4937V7.4937V7.4937V7.4937L18.427 7.50062L18.414 7.50755V7.50755V7.50755V7.50755V7.50755V7.50755V7.50755V7.50755V7.50755H18.481L18.8604 7.42097C19.1052 7.36572 19.347 7.29596 19.5846 7.21201L19.9488 7.08156L19.9899 7.06771L20.0104 7.05963L20.0234 7.0527L20.0375 7.04578L20.0504 7.03885L20.0645 7.03077H20.0915H20.1185L20.125 7.09888Z" fill="white"/>
</svg>

<svg width="24" height="24" fill="none" xmlns="http://www.w3.org/2000/svg"><path d="M20.125 7.099h-.014l-.006.014-.007.015-.172.246a2.1 2.1 0 01-.182.246c-.01 0-.022.017-.038.042-.09.113-.186.22-.287.322a7.067 7.067 0 01-.518.502.698.698 0 00-.256.543c0 .215-.014.462-.031.726a9.688 9.688 0 01-.102.874 11.084 11.084 0 01-.608 2.217 9.24 9.24 0 01-.467 1.01 9.416 9.416 0 01-.86 1.344c-.139.183-.316.39-.53.62l-.351.375a12.138 12.138 0 01-.765.651 6.8 6.8 0 01-.49.346 8.418 8.418 0 01-.54.314c-.22.124-.447.234-.68.33-.243.1-.5.195-.77.28-.258.084-.52.152-.785.204-.253.047-.54.089-.859.122l-.48.051v.007h-.913v-.007l-.115-.008-.19-.014c-.049 0-.237-.031-.561-.08a7.661 7.661 0 01-.764-.144 9.74 9.74 0 01-.826-.275 7.817 7.817 0 01-.937-.408l-.487-.217a2.939 2.939 0 01-.217-.134l-.122-.079-.013-.007-.03-.025h-.027v-.029h.027l.062.007c.04 0 .15.013.33.022a5.988 5.988 0 001.198-.065 6.375 6.375 0 001.552-.465c.24-.115.412-.198.513-.255.16-.093.314-.195.463-.306l.311-.224h.027v-.029L9.5 15.75l-.21-.014a2.826 2.826 0 01-.785-.239 3.49 3.49 0 01-.487-.274 2.318 2.318 0 01-.341-.265 5.716 5.716 0 01-.271-.294 2.972 2.972 0 01-.251-.448 3.5 3.5 0 01-.233-.462l-.108-.263-.007-.02-.007-.023v-.028h.04l.15.022c.155.016.31.02.466.014.147 0 .294-.01.44-.029.081-.014.131-.024.148-.029l.027-.007.035-.006.033-.008-.028-.007-.027-.008-.027-.007-.027-.007-.027-.007-.092-.042a5.402 5.402 0 01-.365-.16 2.68 2.68 0 01-.81-.551 3.939 3.939 0 01-.346-.402 2.927 2.927 0 01-.339-.571 3.431 3.431 0 01-.324-1.22l-.024-.304h.027l.013.008.014.007.013.007.014.007.21.101c.168.077.342.135.521.174.206.048.33.075.372.08l.06.006h.122l-.014-.007-.013-.007-.013-.007-.014-.006-.116-.093a1.918 1.918 0 01-.233-.23 10.262 10.262 0 01-.244-.304 2.423 2.423 0 01-.216-.34 4.407 4.407 0 01-.2-.462 3.52 3.52 0 01-.159-.56 3.387 3.387 0 01-.097-.597 3.096 3.096 0 01.095-.91 3.65 3.65 0 01.175-.52l.116-.274.004-.028.006-.022.007.015.006.015.183.217c.121.144.266.305.432.484.087.1.18.192.278.277.027.017.05.04.067.067.085.09.176.176.271.255.154.135.354.292.602.47.25.178.524.354.825.527.314.18.64.336.973.47.348.14.592.23.73.274.14.043.379.098.718.166.338.068.593.115.764.13.172.015.289.03.352.034h.095V9.47l-.028-.181a3.746 3.746 0 01-.027-.506 3.54 3.54 0 01.047-.599c.033-.19.08-.375.143-.556a3.03 3.03 0 01.185-.453c.074-.133.154-.261.24-.385a3.11 3.11 0 01.927-.86c.18-.109.368-.2.562-.275a2.53 2.53 0 01.432-.123c.06-.007.119-.018.177-.033h.703l.257.054c.16.033.315.08.466.141a3.865 3.865 0 01.762.433c.102.075.197.16.285.252a.377.377 0 00.388.069c.192-.049.382-.11.568-.181a7.19 7.19 0 00.602-.26c.2-.097.324-.157.362-.184l.068-.042.014-.007.013-.008.014-.007.013-.007h.027v.044l-.007.02-.007.022-.006.015-.007.014-.007.022a.566.566 0 00-.013.058c-.037.099-.08.195-.129.289-.088.18-.19.351-.304.513a2.413 2.413 0 01-.325.393c-.097.09-.16.152-.193.188a.535.535 0 01-.115.1l-.068.049-.013.007-.014.007-.014.007-.013.007h.067l.38-.087a6.41 6.41 0 00.724-.209l.364-.13.04-.014.021-.008.013-.007.015-.007.012-.007.014-.008h.054l.007.068z" fill="#fff"/></svg>
